.local/share/icons/Gruvbox-Plus-Dark/mimetypes/scalable/application-octet-stream.svg

<svg width="256" height="256" viewBox="0 0 256 256" fill="none" xmlns="http://www.w3.org/2000/svg">
<g clip-path="url(#clip0)">
<g opacity="0.4" filter="url(#filter0_f)">
<path d="M55.0839 15.5636H155.608L216.009 75.7129L216.011 224.609C216.011 233.52 208.749 240.737 199.838 240.737H55.0838C46.1734 240.737 39 233.564 39 224.654V31.6474C39 22.737 46.1734 15.5636 55.0838 15.5636H55.0839Z" fill="#282828"/>
</g>
<path d="M55.0839 15H155.608L216.009 75.1493L216.011 224.045C216.011 232.956 208.749 240.174 199.838 240.174H55.0838C46.1734 240.174 39 233 39 224.09V31.0838C39 22.1734 46.1734 15 55.0838 15H55.0839Z" fill="#ebdbb2"/>
<path fill-rule="evenodd" clip-rule="evenodd" d="M155.608 20.3191H55.0839C49.1112 20.3191 44.3191 25.1111 44.3191 31.0838V224.09C44.3191 230.063 49.1111 234.855 55.0838 234.855H199.838C205.83 234.855 210.692 229.999 210.692 224.046V75.1493L155.608 20.3191ZM155.608 15H55.0839C46.1735 15 39 22.1734 39 31.0838V224.09C39 233 46.1734 240.174 55.0838 240.174H199.838C208.749 240.174 216.011 232.956 216.011 224.045L216.009 75.1493L155.608 15Z" fill="url(#paint0_linear)"/>
<path fill-rule="evenodd" clip-rule="evenodd" d="M81.8462 80.6306V56.9474H93.3836V80.6306H81.8462ZM81.8456 53C79.7217 53 78 54.767 78 56.9468V80.6312C78 82.8109 79.7217 84.5779 81.8456 84.5779H93.3842C95.508 84.5779 97.2298 82.8109 97.2298 80.6312V56.9468C97.2298 54.767 95.508 53 93.3842 53H81.8456ZM135.694 80.6306V56.9474H147.232V80.6306H135.694ZM135.694 53C133.57 53 131.848 54.767 131.848 56.9468V80.6312C131.848 82.8109 133.57 84.5779 135.694 84.5779H147.232C149.356 84.5779 151.078 82.8109 151.078 80.6312V56.9468C151.078 54.767 149.356 53 147.232 53H135.694ZM162.616 56.9474V80.6306H174.154V56.9474H162.616ZM158.77 56.9468C158.77 54.767 160.492 53 162.616 53H174.154C176.278 53 178 54.767 178 56.9468V80.6312C178 82.8109 176.278 84.5779 174.154 84.5779H162.616C160.492 84.5779 158.77 82.8109 158.77 80.6312V56.9468ZM106.849 53C105.787 53 104.926 53.8837 104.926 54.9737C104.926 56.0637 105.787 56.9474 106.849 56.9474H112.616V80.6306H106.849C105.787 80.6306 104.926 81.5142 104.926 82.6043C104.926 83.6943 105.787 84.578 106.849 84.578H114.539H122.233C123.295 84.578 124.156 83.6943 124.156 82.6043V74.7082C124.156 73.6182 123.295 72.7345 122.233 72.7345C121.17 72.7345 120.309 73.6182 120.309 74.7082V80.6306H116.462V53H106.849ZM81.8462 120.103V96.4202H93.3836V120.103H81.8462ZM81.8456 92.4728C79.7217 92.4728 78 94.2398 78 96.4196V120.104C78 122.284 79.7217 124.051 81.8456 124.051H93.3842C95.5081 124.051 97.2298 122.284 97.2298 120.104V96.4196C97.2298 94.2398 95.5081 92.4728 93.3842 92.4728H81.8456ZM131.848 94.4502C131.848 93.3602 132.709 92.4765 133.771 92.4765H143.384V120.103H147.232V114.185C147.232 113.095 148.093 112.211 149.155 112.211C150.217 112.211 151.078 113.095 151.078 114.185V122.077C151.078 123.167 150.217 124.051 149.155 124.051H141.461H133.771C132.709 124.051 131.848 123.167 131.848 122.077C131.848 120.987 132.709 120.103 133.771 120.103H139.538V96.4239H133.771C132.709 96.4239 131.848 95.5402 131.848 94.4502ZM108.768 96.4202V120.103H120.306V96.4202H108.768ZM104.922 96.4196C104.922 94.2398 106.644 92.4728 108.768 92.4728H120.306C122.43 92.4728 124.152 94.2398 124.152 96.4196V120.104C124.152 122.284 122.43 124.051 120.306 124.051H108.768C106.644 124.051 104.922 122.284 104.922 120.104V96.4196ZM162.616 120.103V96.4202H174.154V120.103H162.616ZM162.616 92.4728C160.492 92.4728 158.77 94.2398 158.77 96.4196V120.104C158.77 122.284 160.492 124.051 162.616 124.051H174.154C176.278 124.051 178 122.284 178 120.104V96.4196C178 94.2398 176.278 92.4728 174.154 92.4728H162.616ZM108.768 135.893V159.576H120.306V135.893H108.768ZM104.922 135.892C104.922 133.713 106.644 131.946 108.768 131.946H120.306C122.43 131.946 124.152 133.713 124.152 135.892V159.577C124.152 161.757 122.43 163.524 120.306 163.524H108.768C106.644 163.524 104.922 161.757 104.922 159.577V135.892ZM135.694 159.576V135.893H147.232V159.576H135.694ZM135.694 131.946C133.57 131.946 131.848 133.713 131.848 135.892V159.577C131.848 161.757 133.57 163.524 135.694 163.524H147.232C149.356 163.524 151.078 161.757 151.078 159.577V135.892C151.078 133.713 149.356 131.946 147.232 131.946H135.694ZM81.8462 175.369V199.053H93.3836V175.369H81.8462ZM78 175.369C78 173.189 79.7217 171.422 81.8456 171.422H93.3842C95.508 171.422 97.2298 173.189 97.2298 175.369V199.053C97.2298 201.233 95.508 203 93.3842 203H81.8456C79.7217 203 78 201.233 78 199.053V175.369ZM162.616 199.053V175.369H174.154V199.053H162.616ZM162.616 171.422C160.492 171.422 158.77 173.189 158.77 175.369V199.053C158.77 201.233 160.492 203 162.616 203H174.154C176.278 203 178 201.233 178 199.053V175.369C178 173.189 176.278 171.422 174.154 171.422H162.616ZM104.926 173.396C104.926 172.306 105.787 171.422 106.849 171.422H116.462V199.053H120.309V193.13C120.309 192.04 121.17 191.157 122.233 191.157C123.295 191.157 124.156 192.04 124.156 193.13V201.026C124.156 202.116 123.295 203 122.233 203H114.539H106.849C105.787 203 104.926 202.116 104.926 201.026C104.926 199.936 105.787 199.053 106.849 199.053H112.616V175.369H106.849C105.787 175.369 104.926 174.486 104.926 173.396ZM78 133.919C78 132.829 78.861 131.946 79.9231 131.946H89.5398V159.576H93.3836V153.657C93.3836 152.567 94.2446 151.684 95.3067 151.684C96.3688 151.684 97.2298 152.567 97.2298 153.657V161.55C97.2298 162.64 96.3688 163.523 95.3067 163.523H87.7361C87.6966 163.526 87.6568 163.527 87.6167 163.527C87.5766 163.527 87.5368 163.526 87.4973 163.523H79.9231C78.861 163.523 78 162.64 78 161.55C78 160.46 78.861 159.576 79.9231 159.576H85.6936V135.893H79.9231C78.861 135.893 78 135.009 78 133.919ZM158.77 133.919C158.77 132.829 159.631 131.946 160.693 131.946H170.31V159.576H174.154V153.657C174.154 152.567 175.015 151.684 176.077 151.684C177.139 151.684 178 152.567 178 153.657V161.55C178 162.64 177.139 163.523 176.077 163.523H168.506C168.467 163.526 168.427 163.527 168.387 163.527C168.347 163.527 168.307 163.526 168.268 163.523H160.693C159.631 163.523 158.77 162.64 158.77 161.55C158.77 160.46 159.631 159.576 160.693 159.576H166.464V135.893H160.693C159.631 135.893 158.77 135.009 158.77 133.919ZM131.848 173.396C131.848 172.306 132.709 171.422 133.771 171.422H143.384V199.053H147.232V193.13C147.232 192.04 148.093 191.157 149.155 191.157C150.217 191.157 151.078 192.04 151.078 193.13V201.026C151.078 202.116 150.217 203 149.155 203H141.461H133.771C132.709 203 131.848 202.116 131.848 201.026C131.848 199.936 132.709 199.053 133.771 199.053H139.538V175.369H133.771C132.709 175.369 131.848 174.486 131.848 173.396Z" fill="url(#paint1_linear)"/>
<path opacity="0.25" d="M155.608 17V61.2306C155.608 70.141 162.867 77.1605 171.777 77.1605L216.009 77.1493V75.1493L155.608 17Z" fill="#282828"/>
<path d="M155.608 15V59.2306C155.608 68.141 162.867 75.1605 171.777 75.1605L216.009 75.1493L155.608 15Z" fill="url(#paint2_linear)"/>
</g>
<defs>
<filter id="filter0_f" x="23.8778" y="0.441412" width="207.255" height="255.418" filterUnits="userSpaceOnUse" color-interpolation-filters="sRGB">
<feFlood flood-opacity="0" result="BackgroundImageFix"/>
<feBlend mode="normal" in="SourceGraphic" in2="BackgroundImageFix" result="shape"/>
<feGaussianBlur stdDeviation="7.5611" result="effect1_foregroundBlur"/>
</filter>
<linearGradient id="paint0_linear" x1="39" y1="15" x2="39" y2="240.174" gradientUnits="userSpaceOnUse">
<stop offset="1e-07" stop-color="#3c3836"/>
<stop offset="1" stop-color="#665c54"/>
</linearGradient>
<linearGradient id="paint1_linear" x1="78" y1="53" x2="78" y2="203" gradientUnits="userSpaceOnUse">
<stop offset="1e-07" stop-color="#3c3836"/>
<stop offset="1" stop-color="#665c54"/>
</linearGradient>
<linearGradient id="paint2_linear" x1="155.608" y1="15" x2="155.608" y2="75.1605" gradientUnits="userSpaceOnUse">
<stop offset="1e-07" stop-color="#3c3836"/>
<stop offset="1" stop-color="#665c54"/>
</linearGradient>
<clipPath id="clip0">
<rect width="256" height="256" fill="#ebdbb2"/>
</clipPath>
</defs>
</svg>

<svg width="256" height="256" fill="none" version="1.1" viewBox="0 0 256 256" xmlns="http://www.w3.org/2000/svg">
  <path d="m55.08 15h100.5l60.4 60.15 2e-3 148.9c0 8.911-7.262 16.13-16.17 16.13h-144.8c-8.91 0-16.08-7.174-16.08-16.08v-193c0-8.91 7.173-16.08 16.08-16.08h1e-4z" fill="#ebdbb2"/>
  <path d="m155.6 20.32h-100.5c-5.973 0-10.76 4.792-10.76 10.76v193c0 5.973 4.792 10.76 10.76 10.76h144.8c5.992 0 10.85-4.856 10.85-10.81v-148.9l-55.08-54.83zm0-5.319h-100.5c-8.91 0-16.08 7.173-16.08 16.08v193c0 8.91 7.173 16.08 16.08 16.08h144.8c8.911 0 16.17-7.218 16.17-16.13l-2e-3 -148.9-60.4-60.15z" clip-rule="evenodd" fill="url(#paint0_linear)" fill-rule="evenodd"/>
  <path d="m81.85 80.63v-23.68h11.54v23.68h-11.54zm-6e-4 -27.63c-2.124 0-3.846 1.767-3.846 3.947v23.68c0 2.18 1.722 3.947 3.846 3.947h11.54c2.124 0 3.846-1.767 3.846-3.947v-23.68c0-2.18-1.722-3.947-3.846-3.947h-11.54zm53.85 27.63v-23.68h11.54v23.68h-11.54zm0-27.63c-2.124 0-3.846 1.767-3.846 3.947v23.68c0 2.18 1.722 3.947 3.846 3.947h11.54c2.124 0 3.846-1.767 3.846-3.947v-23.68c0-2.18-1.722-3.947-3.846-3.947h-11.54zm26.92 3.947v23.68h11.54v-23.68h-11.54zm-3.846-6e-4c0-2.18 1.722-3.947 3.846-3.947h11.54c2.124 0 3.846 1.767 3.846 3.947v23.68c0 2.18-1.722 3.947-3.846 3.947h-11.54c-2.124 0-3.846-1.767-3.846-3.947v-23.68zm-51.92-3.947c-1.062 0-1.923 0.8837-1.923 1.974s0.861 1.974 1.923 1.974h5.767v23.68h-5.767c-1.062 0-1.923 0.8836-1.923 1.974 0 1.09 0.861 1.974 1.923 1.974h15.38c1.062 0 1.923-0.8837 1.923-1.974v-7.896c0-1.09-0.861-1.974-1.923-1.974-1.063 0-1.924 0.8837-1.924 1.974v5.922h-3.847v-27.63h-9.613zm-25 67.1v-23.68h11.54v23.68h-11.54zm-6e-4 -27.63c-2.124 0-3.846 1.767-3.846 3.947v23.68c0 2.18 1.722 3.947 3.846 3.947h11.54c2.124 0 3.846-1.767 3.846-3.947v-23.68c0-2.18-1.722-3.947-3.846-3.947h-11.54zm50 1.977c0-1.09 0.861-1.974 1.923-1.974h9.613v27.63h3.848v-5.918c0-1.09 0.861-1.974 1.923-1.974s1.923 0.884 1.923 1.974v7.892c0 1.09-0.861 1.974-1.923 1.974h-15.38c-1.062 0-1.923-0.884-1.923-1.974s0.861-1.974 1.923-1.974h5.767v-23.68h-5.767c-1.062 0-1.923-0.8837-1.923-1.974zm-23.08 1.97v23.68h11.54v-23.68h-11.54zm-3.846-6e-4c0-2.18 1.722-3.947 3.846-3.947h11.54c2.124 0 3.846 1.767 3.846 3.947v23.68c0 2.18-1.722 3.947-3.846 3.947h-11.54c-2.124 0-3.846-1.767-3.846-3.947v-23.68zm57.69 23.68v-23.68h11.54v23.68h-11.54zm0-27.63c-2.124 0-3.846 1.767-3.846 3.947v23.68c0 2.18 1.722 3.947 3.846 3.947h11.54c2.124 0 3.846-1.767 3.846-3.947v-23.68c0-2.18-1.722-3.947-3.846-3.947h-11.54zm-53.85 43.42v23.68h11.54v-23.68h-11.54zm-3.846-1e-3c0-2.179 1.722-3.946 3.846-3.946h11.54c2.124 0 3.846 1.767 3.846 3.946v23.68c0 2.18-1.722 3.947-3.846 3.947h-11.54c-2.124 0-3.846-1.767-3.846-3.947v-23.68zm30.77 23.68v-23.68h11.54v23.68h-11.54zm0-27.63c-2.124 0-3.846 1.767-3.846 3.946v23.68c0 2.18 1.722 3.947 3.846 3.947h11.54c2.124 0 3.846-1.767 3.846-3.947v-23.68c0-2.179-1.722-3.946-3.846-3.946h-11.54zm-53.85 43.42v23.68h11.54v-23.68h-11.54zm-3.846 0c0-2.18 1.722-3.947 3.846-3.947h11.54c2.124 0 3.846 1.767 3.846 3.947v23.68c0 2.18-1.722 3.947-3.846 3.947h-11.54c-2.124 0-3.846-1.767-3.846-3.947v-23.68zm84.62 23.68v-23.68h11.54v23.68h-11.54zm0-27.63c-2.124 0-3.846 1.767-3.846 3.947v23.68c0 2.18 1.722 3.947 3.846 3.947h11.54c2.124 0 3.846-1.767 3.846-3.947v-23.68c0-2.18-1.722-3.947-3.846-3.947h-11.54zm-57.69 1.974c0-1.09 0.861-1.974 1.923-1.974h9.613v27.63h3.847v-5.923c0-1.09 0.861-1.973 1.924-1.973 1.062 0 1.923 0.883 1.923 1.973v7.896c0 1.09-0.861 1.974-1.923 1.974h-15.38c-1.062 0-1.923-0.884-1.923-1.974s0.861-1.973 1.923-1.973h5.767v-23.68h-5.767c-1.062 0-1.923-0.883-1.923-1.973zm-26.93-39.48c0-1.09 0.861-1.973 1.923-1.973h9.617v27.63h3.844v-5.919c0-1.09 0.861-1.973 1.923-1.973s1.923 0.883 1.923 1.973v7.893c0 1.09-0.861 1.973-1.923 1.973h-7.571c-0.0395 3e-3 -0.0793 4e-3 -0.1194 4e-3s-0.0799-1e-3 -0.1194-4e-3h-7.574c-1.062 0-1.923-0.883-1.923-1.973s0.861-1.974 1.923-1.974h5.77v-23.68h-5.77c-1.062 0-1.923-0.884-1.923-1.974zm80.77 0c0-1.09 0.861-1.973 1.923-1.973h9.617v27.63h3.844v-5.919c0-1.09 0.861-1.973 1.923-1.973s1.923 0.883 1.923 1.973v7.893c0 1.09-0.861 1.973-1.923 1.973h-7.571c-0.039 3e-3 -0.079 4e-3 -0.119 4e-3s-0.08-1e-3 -0.119-4e-3h-7.575c-1.062 0-1.923-0.883-1.923-1.973s0.861-1.974 1.923-1.974h5.771v-23.68h-5.771c-1.062 0-1.923-0.884-1.923-1.974zm-26.92 39.48c0-1.09 0.861-1.974 1.923-1.974h9.613v27.63h3.848v-5.923c0-1.09 0.861-1.973 1.923-1.973s1.923 0.883 1.923 1.973v7.896c0 1.09-0.861 1.974-1.923 1.974h-15.38c-1.062 0-1.923-0.884-1.923-1.974s0.861-1.973 1.923-1.973h5.767v-23.68h-5.767c-1.062 0-1.923-0.883-1.923-1.973z" clip-rule="evenodd" fill="url(#paint1_linear)" fill-rule="evenodd"/>
  <path d="m155.6 17v44.23c0 8.91 7.259 15.93 16.17 15.93l44.23-0.0112v-2l-60.4-58.15z" fill="#282828" opacity=".25"/>
  <path d="m155.6 15v44.23c0 8.91 7.259 15.93 16.17 15.93l44.23-0.0112-60.4-60.15z" fill="url(#paint2_linear)"/>
  <defs>
    <linearGradient id="paint0_linear" x1="39" x2="39" y1="15" y2="240.2" gradientUnits="userSpaceOnUse">
      <stop stop-color="#3c3836" offset="1e-7"/>
      <stop stop-color="#665c54" offset="1"/>
    </linearGradient>
    <linearGradient id="paint1_linear" x1="78" x2="78" y1="53" y2="203" gradientUnits="userSpaceOnUse">
      <stop stop-color="#3c3836" offset="1e-7"/>
      <stop stop-color="#665c54" offset="1"/>
    </linearGradient>
    <linearGradient id="paint2_linear" x1="155.6" x2="155.6" y1="15" y2="75.16" gradientUnits="userSpaceOnUse">
      <stop stop-color="#3c3836" offset="1e-7"/>
      <stop stop-color="#665c54" offset="1"/>
    </linearGradient>
  </defs>
</svg>
